other/plex_dash.svg

<?xml version="1.0" encoding="UTF-8" standalone="no"?>
<svg
   version="1.1"
   viewBox="0 0 48 48"
   xml:space="preserve"
   id="svg10"
   xmlns="http://www.w3.org/2000/svg"
   xmlns:svg="http://www.w3.org/2000/svg"><defs
     id="defs6"><style
       id="style2">.a{fill:none;stroke:#fff;stroke-linecap:round;stroke-linejoin:round;}</style><style
       id="style4" /></defs><path
     style="opacity:1;fill:none;stroke:#ffffff;stroke-width:0.999999;stroke-linecap:round;stroke-linejoin:round;stroke-dashoffset:0.5"
     d="M 5.5000004,24.959019 H 12.892199 L 17.634171,32.935468 29.241638,13.1548 35.081431,23.165292 H 42.5"
     id="path1" /><path
     style="opacity:1;fill:none;stroke:#ffffff;stroke-width:0.999999;stroke-linecap:round;stroke-linejoin:round;stroke-dashoffset:0.5"
     d="m 29.268568,16.859576 4.283067,7.217006 -8.949172,15.3537 -8.496491,0.03483 z"
     id="path2" /><path
     style="opacity:1;fill:none;stroke:#ffffff;stroke-width:0.999999;stroke-linecap:round;stroke-linejoin:round;stroke-dashoffset:0.5"
     d="M 24.289067,8.5348876 27.144446,12.958467 22.931022,20.412373 16.07115,8.6742129 Z"
     id="path3" /></svg>

<?xml version="1.0" encoding="UTF-8"?><svg id="a" xmlns="http://www.w3.org/2000/svg" viewBox="0 0 48 48"><defs><style>.e{fill:none;stroke:#fff;stroke-linecap:round;stroke-linejoin:round;stroke-width:1px;}</style></defs><path id="b" class="e" d="m5.5,24.959h7.3922l4.742,7.9764,11.6075-19.7807,5.8398,10.0105h7.4186"/><path id="c" class="e" d="m29.2686,16.8596l4.2831,7.217-8.9492,15.3537-8.4965.0348,13.1626-22.6055Z"/><path id="d" class="e" d="m24.2891,8.5349l2.8554,4.4236-4.2134,7.4539-6.8599-11.7382,8.2179-.1393Z"/></svg>
